svgs/solid/objects-align-center-vertical.svg

<svg xmlns="http://www.w3.org/2000/svg" viewBox="0 0 512 512"><!--! Font Awesome Pro 6.4.2 by @fontawesome - https://fontawesome.com License - https://fontawesome.com/license (Commercial License) Copyright 2023 Fonticons, Inc. --><path d="M64 80c0-26.5 21.5-48 48-48h64c26.5 0 48 21.5 48 48V232h64V144c0-26.5 21.5-48 48-48h64c26.5 0 48 21.5 48 48v88h40c13.3 0 24 10.7 24 24s-10.7 24-24 24H448v88c0 26.5-21.5 48-48 48H336c-26.5 0-48-21.5-48-48V280H224V432c0 26.5-21.5 48-48 48H112c-26.5 0-48-21.5-48-48V280H24c-13.3 0-24-10.7-24-24s10.7-24 24-24H64V80z"/></svg>

<svg xmlns="http://www.w3.org/2000/svg" viewBox="0 0 512 512"><!--! Font Awesome Pro 6.1.1 by @fontawesome - https://fontawesome.com License - https://fontawesome.com/license (Commercial License) Copyright 2022 Fonticons, Inc. --><path d="M64 80C64 53.49 85.49 32 112 32H176C202.5 32 224 53.49 224 80V232H288V144C288 117.5 309.5 96 336 96H400C426.5 96 448 117.5 448 144V232H488C501.3 232 512 242.7 512 256C512 269.3 501.3 280 488 280H448V368C448 394.5 426.5 416 400 416H336C309.5 416 288 394.5 288 368V280H224V432C224 458.5 202.5 480 176 480H112C85.49 480 64 458.5 64 432V280H24C10.75 280 0 269.3 0 256C0 242.7 10.75 232 24 232H64V80z"/></svg>
